icons/1_Primary/Wuxiaworld.svg

<svg width="1024" height="1024" viewBox="0 0 1024 1024" fill="none" xmlns="http://www.w3.org/2000/svg">
<g clip-path="url(#clip0_2_3963)">
<path d="M512 1024C794.77 1024 1024 794.77 1024 512C1024 229.23 794.77 0 512 0C229.23 0 0 229.23 0 512C0 794.77 229.23 1024 512 1024Z" fill="#56595B"/>
<path d="M750.32 786.9C749.547 785.946 748.753 785.006 747.94 784.08C730.937 764.918 715.642 744.306 702.23 722.48C676.79 681.06 655.08 637.74 636.11 593.1C623.65 563.75 611.48 534.3 599.32 504.82C592.24 487.606 585.133 470.42 578 453.26L576.1 448.63L577.1 448.41C577.668 448.261 578.246 448.157 578.83 448.1C580.91 447.95 583.01 447.84 585.1 447.73C589.1 447.49 593.1 447.25 597.1 446.85C600.369 446.557 603.589 445.865 606.69 444.79C609.79 443.65 610.25 440.79 608.05 438.32C606.961 437.132 605.728 436.084 604.38 435.2C596.27 429.71 587.24 428.2 577.63 429.2C575.55 429.42 573.5 429.75 571.45 430.07L568.7 430.49L568.64 430.38L568.55 430.23C568.482 430.124 568.422 430.014 568.37 429.9C558.79 406.633 549.233 383.396 539.7 360.19C539.46 359.54 539.276 358.871 539.15 358.19L538.89 357.19L542.32 356.49C544.72 355.99 547 355.49 549.27 355.02C550.47 354.74 551.68 354.49 552.9 354.25C556.234 353.671 559.505 352.777 562.67 351.58C565.91 350.22 569.07 350.11 572.33 349.98H573.07C574.29 349.92 574.86 350.48 575.37 351.68C576.184 353.847 577.335 355.871 578.78 357.68C579.355 358.348 580.066 358.887 580.865 359.261C581.664 359.634 582.534 359.833 583.416 359.846C584.298 359.858 585.172 359.683 585.982 359.332C586.791 358.981 587.516 358.462 588.11 357.81C589.267 356.615 590.148 355.182 590.69 353.61C591.848 350.293 592.269 346.765 591.924 343.269C591.578 339.773 590.475 336.395 588.69 333.37C586.04 328.67 582.24 326.05 576.47 326.81C571.95 327.4 567.47 327.95 562.92 328.51C556.43 329.3 549.92 330.1 543.47 331.04C540.08 331.52 536.74 332.33 533.35 333.16C531.78 333.53 530.2 333.92 528.58 334.27L528.43 333.99L527.56 332.33C516.15 308.74 502.47 286.58 485.35 266.6C481.76 262.38 479.58 258.27 479.88 252.48C480.25 245.09 474.81 238.32 468.08 236.26C463.55 234.88 459.42 235.63 456.25 239.15C451.84 244.05 449.74 250.03 451.37 256.35C453.015 262.731 455.293 268.931 458.17 274.86C468.51 296.32 480.75 316.78 492.97 337.24L493.6 338.24L494.06 339.01L494.98 340.54L494.06 340.83L493.32 341.09L481.41 344.46C472.41 346.99 463.49 349.51 454.59 352.2C446.59 354.63 438.65 357.2 430.7 359.72C423.62 361.986 416.53 364.223 409.43 366.43C399.75 369.38 389.85 370.63 379.75 368.68C378.13 368.36 376.513 368.026 374.9 367.68C371.77 367.03 368.65 366.39 365.5 365.87C364.499 365.8 363.494 365.939 362.55 366.28L361.19 366.61C361.37 367.03 361.52 367.49 361.67 367.96C361.903 368.926 362.343 369.83 362.96 370.61C366.16 374.12 369.584 377.42 373.21 380.49C380.68 386.49 389.38 389.8 399.02 388.84C405.027 388.185 410.935 386.818 416.62 384.77C424.4 382.01 432.09 379.06 439.77 376.09C445.04 374.09 450.33 372.02 455.62 370.09C470.81 364.47 486.2 359.45 502.2 356.56H502.31C505.07 356.04 505.07 356.04 506.7 359.42L506.46 359.62C506.255 359.817 506.038 360 505.81 360.17C486.35 374.798 467.933 390.763 450.69 407.95C416.69 441.596 382.847 475.38 349.16 509.3C333.07 525.52 314.82 538.3 293.38 546.53L289.71 547.91C285.323 549.483 281.017 551.266 276.79 553.26C270.79 556.17 270.95 559.64 276.48 563.26C284.48 568.59 292.94 568.68 301.75 565.62C311.67 562.17 320.55 556.81 329.38 551.26L332.02 549.6C338.47 545.54 344.92 541.49 351.6 537.86C365.09 530.54 379.25 524.64 393.41 518.74C397.23 517.15 401.04 515.57 404.84 513.95C405.036 513.885 405.244 513.862 405.45 513.88H405.97L405.18 515.11L404.66 515.94L401 521.51C398.14 525.97 395.29 530.39 392.52 534.87C376.61 560.68 363.4 587.66 356.7 617.38L355.87 620.96C354.355 626.877 353.246 632.891 352.55 638.96C351.26 653.15 356.86 665.1 366.55 675.33C375.4 684.71 386.16 688.99 399.18 687.66C409.976 686.506 420.366 682.905 429.56 677.13L434.8 673.9C438.19 671.8 441.58 669.7 444.99 667.63C471.35 651.89 498.99 638.63 526.99 626.06L528.87 625.21C537.53 621.3 546.2 617.39 554.87 613.34C559.253 611.422 563.151 608.549 566.28 604.93C569.8 600.6 569.73 595.49 565.76 591.58C563.724 589.554 561.378 587.866 558.81 586.58C548.99 581.79 539.09 577.14 529.17 572.5L523.17 569.68C521.51 568.89 519.82 568.17 518.05 567.41L515.38 566.27C533.38 550.27 547.82 532.06 556.73 509.53L557.1 510.4C557.887 512.54 558.667 514.683 559.44 516.83C560.6 520.15 561.78 523.43 562.98 526.73C575.27 560.33 588.98 593.37 605.43 625.24C622.81 658.94 642.55 691.18 666.9 720.48C680.919 737.474 696.708 752.928 714 766.58C724.6 774.87 736.19 781.58 748.18 787.67C748.819 787.939 749.492 788.117 750.18 788.2C750.6 788.27 751.1 788.37 751.64 788.49L750.32 786.9ZM405.58 495.52C390.093 502.32 374.547 509.083 358.94 515.81L359.4 515.18C359.552 514.937 359.726 514.71 359.92 514.5L380.14 493.56C397.693 475.313 415.313 457.126 433 439C441.92 429.88 451.29 421.08 460.89 412.68C472.41 402.6 484.15 392.81 495.89 383L505.11 375.31C506.758 373.966 508.481 372.718 510.27 371.57C511.137 370.99 511.997 370.403 512.85 369.81C519.85 387.81 525.31 406.14 530.85 424.58C532.543 430.273 534.263 435.986 536.01 441.72C491.7 457.74 448.72 476.59 405.58 495.52ZM552 499C546.62 514.56 537.25 527.59 525.82 539.33C518.555 546.674 510.639 553.345 502.17 559.26C501.738 559.612 501.216 559.837 500.663 559.91C500.11 559.982 499.548 559.899 499.04 559.67L493.77 557.73C488.28 555.73 482.77 553.67 477.24 551.94C466.24 548.49 455.73 549.94 445.77 555.68C439.87 559.07 434.19 562.68 429.77 567.96C420.3 579.06 424.42 592.05 431.63 599.67C436.05 604.33 442.06 605.49 448.33 605.31C454.33 605.14 459.81 603.19 465.07 600.52C480.232 592.888 494.51 583.615 507.65 572.87C508.063 572.41 508.628 572.114 509.242 572.037C509.855 571.96 510.476 572.106 510.99 572.45L521.5 577.7C526.05 579.95 530.61 582.22 535.1 584.52C537.552 585.759 539.826 587.323 541.86 589.17C545.45 592.49 545.44 596.49 541.55 599.44C537.838 602.301 533.836 604.765 529.61 606.79C523.38 609.68 517.08 612.43 510.75 615.2C505.977 617.259 501.22 619.356 496.48 621.49C470.48 633.29 445.55 647.2 420.63 661.12L418.93 662.12C413.36 665.22 407.59 667.65 401.14 668.12C383.26 669.47 373.03 656.12 371.35 643.53C370.58 637.72 371.83 632.18 373.08 626.65L373.41 625.18C378.09 604.18 384.19 583.54 393.63 564.07C398.75 553.54 404.32 543.19 410.02 532.92C418.19 518.27 430.55 507.76 445.08 499.57C458.02 492.29 471.62 486.41 485.36 480.75L492.77 477.62C495.66 476.37 498.56 475.13 501.49 473.93L504.49 472.79C511.73 470.06 529.95 463.17 538.43 459.54C538.91 459.36 539.43 459.17 539.9 459.01C540.19 458.92 540.53 458.83 540.9 458.7L544.84 471.7L548.75 484.55C549.12 485.78 549.52 487.02 549.91 488.24C550.65 490.64 551.42 493.03 552.07 495.43C552.385 496.602 552.361 497.84 552 499ZM492.5 566L488.5 568.36C485.68 570.02 482.88 571.68 480.02 573.26C473.7 576.76 467.34 580.213 460.94 583.62C455.39 586.55 449.6 588.86 443.15 588.84C435.22 588.84 432.15 585.08 434.82 576.95C435.67 574.33 437.82 571.95 439.93 569.95C442.501 567.689 445.224 565.608 448.08 563.72L449.2 562.95C454.067 559.475 460.068 557.967 466 558.73C475.16 559.73 483.81 562.49 492.41 565.44L492.5 566ZM625.27 400.08C624.247 399.903 623.258 399.565 622.34 399.08C620.04 397.9 619.58 395.78 621.66 394.23C623.592 392.829 625.76 391.786 628.06 391.15C633.65 389.49 639.38 388.33 644.94 386.63C649.777 385.17 654.523 383.42 659.15 381.39C661.546 380.22 663.716 378.636 665.56 376.71C667.827 374.443 668.053 371.986 666.24 369.34C664.434 366.77 662.406 364.365 660.18 362.15C649.171 351.057 635.689 342.733 620.84 337.86C617.346 336.642 613.924 335.226 610.59 333.62C609.5 333.12 608.75 331.83 607.84 330.91C609.06 330.47 610.31 329.56 611.49 329.66C616.25 329.99 621.02 330.47 625.76 331.21C637.325 332.895 648.587 336.236 659.2 341.13C669.811 346.132 679.159 353.46 686.55 362.57C688.363 364.891 689.806 367.478 690.83 370.24C691.719 372.291 691.965 374.563 691.537 376.757C691.108 378.951 690.025 380.964 688.43 382.53C685.635 385.342 682.489 387.782 679.07 389.79C670.37 394.91 660.67 397.13 650.9 398.9C645.28 399.9 628.12 400.56 625.26 400.12L625.27 400.08Z" fill="white"/>
</g>
<defs>
<clipPath id="clip0_2_3963">
<rect width="1024" height="1024" fill="white"/>
</clipPath>
</defs>
</svg>

<svg xmlns="http://www.w3.org/2000/svg" width="1024" height="1024" fill="none">
   <g clip-path="url(#a)">
      <path fill="#56595B" d="M512 1024c282.77 0 512-229.23 512-512S794.77 0 512 0 0 229.23 0 512s229.23 512 512 512Z"/>
      <path fill="#fff" d="M750.32 786.9a93.35 93.35 0 0 0-2.38-2.82 439.489 439.489 0 0 1-45.71-61.6c-25.44-41.42-47.15-84.74-66.12-129.38-12.46-29.35-24.63-58.8-36.79-88.28-7.08-17.214-14.187-34.4-21.32-51.56l-1.9-4.63 1-.22a11.044 11.044 0 0 1 1.73-.31c2.08-.15 4.18-.26 6.27-.37 4-.24 8-.48 12-.88a40.246 40.246 0 0 0 9.59-2.06c3.1-1.14 3.56-4 1.36-6.47a19.441 19.441 0 0 0-3.67-3.12c-8.11-5.49-17.14-7-26.75-6-2.08.22-4.13.55-6.18.87l-2.75.42-.06-.11-.09-.15a2.638 2.638 0 0 1-.18-.33 93451.534 93451.534 0 0 1-28.67-69.71c-.24-.65-.424-1.319-.55-2l-.26-1 3.43-.7c2.4-.5 4.68-1 6.95-1.47 1.2-.28 2.41-.53 3.63-.77a53.49 53.49 0 0 0 9.77-2.67c3.24-1.36 6.4-1.47 9.66-1.6h.74c1.22-.06 1.79.5 2.3 1.7a22.02 22.02 0 0 0 3.41 6 6.244 6.244 0 0 0 2.085 1.581 6.238 6.238 0 0 0 7.245-1.451 11.362 11.362 0 0 0 2.58-4.2 24.169 24.169 0 0 0-2-20.24c-2.65-4.7-6.45-7.32-12.22-6.56-4.52.59-9 1.14-13.55 1.7-6.49.79-13 1.59-19.45 2.53-3.39.48-6.73 1.29-10.12 2.12-1.57.37-3.15.76-4.77 1.11l-.15-.28-.87-1.66c-11.41-23.59-25.09-45.75-42.21-65.73-3.59-4.22-5.77-8.33-5.47-14.12.37-7.39-5.07-14.16-11.8-16.22-4.53-1.38-8.66-.63-11.83 2.89-4.41 4.9-6.51 10.88-4.88 17.2a99.02 99.02 0 0 0 6.8 18.51c10.34 21.46 22.58 41.92 34.8 62.38l.63 1 .46.77.92 1.53-.92.29-.74.26-11.91 3.37c-9 2.53-17.92 5.05-26.82 7.74-8 2.43-15.94 5-23.89 7.52-7.08 2.266-14.17 4.503-21.27 6.71-9.68 2.95-19.58 4.2-29.68 2.25-1.62-.32-3.237-.654-4.85-1-3.13-.65-6.25-1.29-9.4-1.81a7.204 7.204 0 0 0-2.95.41l-1.36.33c.18.42.33.88.48 1.35.233.966.673 1.87 1.29 2.65 3.2 3.51 6.624 6.81 10.25 9.88 7.47 6 16.17 9.31 25.81 8.35a76.349 76.349 0 0 0 17.6-4.07c7.78-2.76 15.47-5.71 23.15-8.68 5.27-2 10.56-4.07 15.85-6 15.19-5.62 30.58-10.64 46.58-13.53h.11c2.76-.52 2.76-.52 4.39 2.86l-.24.2a6.82 6.82 0 0 1-.65.55 524.505 524.505 0 0 0-55.12 47.78c-34 33.646-67.843 67.43-101.53 101.35-16.09 16.22-34.34 29-55.78 37.23l-3.67 1.38a144.876 144.876 0 0 0-12.92 5.35c-6 2.91-5.84 6.38-.31 10 8 5.33 16.46 5.42 25.27 2.36 9.92-3.45 18.8-8.81 27.63-14.36l2.64-1.66c6.45-4.06 12.9-8.11 19.58-11.74 13.49-7.32 27.65-13.22 41.81-19.12 3.82-1.59 7.63-3.17 11.43-4.79.196-.065.404-.088.61-.07h.52l-.79 1.23-.52.83-3.66 5.57c-2.86 4.46-5.71 8.88-8.48 13.36-15.91 25.81-29.12 52.79-35.82 82.51l-.83 3.58a134.221 134.221 0 0 0-3.32 18c-1.29 14.19 4.31 26.14 14 36.37 8.85 9.38 19.61 13.66 32.63 12.33a71.377 71.377 0 0 0 30.38-10.53l5.24-3.23c3.39-2.1 6.78-4.2 10.19-6.27 26.36-15.74 54-29 82-41.57l1.88-.85c8.66-3.91 17.33-7.82 26-11.87a32.087 32.087 0 0 0 11.41-8.41c3.52-4.33 3.45-9.44-.52-13.35a26.98 26.98 0 0 0-6.95-5c-9.82-4.79-19.72-9.44-29.64-14.08l-6-2.82c-1.66-.79-3.35-1.51-5.12-2.27l-2.67-1.14c18-16 32.44-34.21 41.35-56.74l.37.87c.787 2.14 1.567 4.283 2.34 6.43 1.16 3.32 2.34 6.6 3.54 9.9 12.29 33.6 26 66.64 42.45 98.51 17.38 33.7 37.12 65.94 61.47 95.24a310.4 310.4 0 0 0 47.1 46.1c10.6 8.29 22.19 15 34.18 21.09a7.455 7.455 0 0 0 2 .53c.42.07.92.17 1.46.29l-1.32-1.59ZM405.58 495.52a7510.87 7510.87 0 0 1-46.64 20.29l.46-.63c.152-.243.326-.47.52-.68l20.22-20.94A10661.25 10661.25 0 0 1 433 439c8.92-9.12 18.29-17.92 27.89-26.32 11.52-10.08 23.26-19.87 35-29.68l9.22-7.69a56.115 56.115 0 0 1 5.16-3.74c.867-.58 1.727-1.167 2.58-1.76 7 18 12.46 36.33 18 54.77a2677.496 2677.496 0 0 0 5.16 17.14c-44.31 16.02-87.29 34.87-130.43 53.8ZM552 499c-5.38 15.56-14.75 28.59-26.18 40.33a170.982 170.982 0 0 1-23.65 19.93 3.005 3.005 0 0 1-3.13.41l-5.27-1.94c-5.49-2-11-4.06-16.53-5.79-11-3.45-21.51-2-31.47 3.74-5.9 3.39-11.58 7-16 12.28-9.47 11.1-5.35 24.09 1.86 31.71 4.42 4.66 10.43 5.82 16.7 5.64 6-.17 11.48-2.12 16.74-4.79a232.157 232.157 0 0 0 42.58-27.65 2.569 2.569 0 0 1 3.34-.42l10.51 5.25c4.55 2.25 9.11 4.52 13.6 6.82a30.552 30.552 0 0 1 6.76 4.65c3.59 3.32 3.58 7.32-.31 10.27a66.957 66.957 0 0 1-11.94 7.35c-6.23 2.89-12.53 5.64-18.86 8.41a989.357 989.357 0 0 0-14.27 6.29c-26 11.8-50.93 25.71-75.85 39.63l-1.7 1c-5.57 3.1-11.34 5.53-17.79 6-17.88 1.35-28.11-12-29.79-24.59-.77-5.81.48-11.35 1.73-16.88l.33-1.47c4.68-21 10.78-41.64 20.22-61.11 5.12-10.53 10.69-20.88 16.39-31.15 8.17-14.65 20.53-25.16 35.06-33.35 12.94-7.28 26.54-13.16 40.28-18.82l7.41-3.13c2.89-1.25 5.79-2.49 8.72-3.69l3-1.14c7.24-2.73 25.46-9.62 33.94-13.25.48-.18 1-.37 1.47-.53.29-.09.63-.18 1-.31l3.94 13 3.91 12.85c.37 1.23.77 2.47 1.16 3.69.74 2.4 1.51 4.79 2.16 7.19A6.413 6.413 0 0 1 552 499Zm-59.5 67-4 2.36c-2.82 1.66-5.62 3.32-8.48 4.9-6.32 3.5-12.68 6.953-19.08 10.36-5.55 2.93-11.34 5.24-17.79 5.22-7.93 0-11-3.76-8.33-11.89.85-2.62 3-5 5.11-7a74.815 74.815 0 0 1 8.15-6.23l1.12-.77a23.708 23.708 0 0 1 16.8-4.22c9.16 1 17.81 3.76 26.41 6.71l.09.56Zm132.77-165.92a9.88 9.88 0 0 1-2.93-1c-2.3-1.18-2.76-3.3-.68-4.85a19.967 19.967 0 0 1 6.4-3.08c5.59-1.66 11.32-2.82 16.88-4.52 4.837-1.46 9.583-3.21 14.21-5.24a22.606 22.606 0 0 0 6.41-4.68c2.267-2.267 2.493-4.724.68-7.37a53.698 53.698 0 0 0-6.06-7.19 98.848 98.848 0 0 0-39.34-24.29 97.8 97.8 0 0 1-10.25-4.24c-1.09-.5-1.84-1.79-2.75-2.71 1.22-.44 2.47-1.35 3.65-1.25 4.76.33 9.53.81 14.27 1.55a121.786 121.786 0 0 1 33.44 9.92 78.105 78.105 0 0 1 27.35 21.44 28.62 28.62 0 0 1 4.28 7.67 11.06 11.06 0 0 1-2.4 12.29 46.148 46.148 0 0 1-9.36 7.26c-8.7 5.12-18.4 7.34-28.17 9.11-5.62 1-22.78 1.66-25.64 1.22l.01-.04Z"/>
   </g>
   <defs>
      <clipPath id="a">
         <path fill="#fff" d="M0 0h1024v1024H0z"/>
      </clipPath>
   </defs>
</svg>
